X: 10005
T: ASHLEY'S WALTZ
C: Bob McQuillen 6 Nov 93
B: Bob's Note Book 10 #5
%R: waltz
Z: 2021 John Chambers <jc:trillian.mit.edu>
M: 3/4
L: 1/8
K: D
FG \
| A2 AF Ad | fe d2 FA | G2 GF GA | BA G2 ed | c2 c3  d | e2 d2 de | f2 fg fe | dB AG FG |
| A2 AF Ad | fe d2 ef | g2 e3  d | B4    ed | c2 cd cB | A2 f2 e2 | d2 dc de | d4 :|
|: fe \
| df ab af | df ab af | a2 g3  f | g4    ed | cd e2 dB | cd ef ga | g2 f3 e | fg fe dc |
| Bd fa fd | Bd fd fa | b2 g3  f | e2 d2 B2 | cB A2 fg | f4    e2 | d6-     | d4 :|
%%begintext align
%% It was such fun for me when this waltz
%% came along for Ashley Noonan. Ashley is the 2 year old daughter of Nicki
%% and James Noonan, and she's as cute as a bug's ear, as my mother
%% used to say. When I went to see them last summer, Ashley held the door
%% open for me and said, "Comin' in?" I nearly had a cow!!!
%%endtext

%%sep 1 1 500

%%sep 1 1 500

